; generated by PrusaSlicer 2.7.1+win64 on 2024-02-21 at 10:05:45 UTC


;
;
; 

; external perimeters extrusion width = 0.45mm
; perimeters extrusion width = 0.45mm
; infill extrusion width = 0.45mm
; solid infill extrusion width = 0.45mm
; top infill extrusion width = 0.40mm
; support material extrusion width = 0.35mm
; first layer extrusion width = 0.42mm

M73 P0 R84
M73 Q0 S85
M201 X1000 Y1000 Z200 E5000 ; sets maximum accelerations, mm/sec^2
M203 X200 Y200 Z12 E120 ; sets maximum feedrates, mm / sec
M204 S1250 T1250 ; sets acceleration (S) and retract acceleration (R), mm/sec^2
M205 X8.00 Y8.00 Z0.40 E4.50 ; sets the jerk limits, mm/sec
M205 S0 T0 ; sets the minimum extruding and travel feed rate, mm/sec

; printing object BLTouch-Leveling-Plate_PLA.stl id:0 copy 0
; stop printing object BLTouch-Leveling-Plate_PLA.stl id:0 copy 0

;TYPE:Custom
M862.3 P "MK3S" ; printer model check
M862.1 P0.4 ; nozzle diameter check
M115 U3.13.2 ; tell printer latest fw version
G90 ; use absolute coordinates
M83 ; extruder relative mode
M104 S215 ; set extruder temp
M140 S60 ; set bed temp
M190 S60 ; wait for bed temp
M109 S215 ; wait for extruder temp
G28 W ; home all without mesh bed level
G80 X78.5219 Y67.0585 W85.1312 H86.8312 ; mesh bed levelling

G1 Z0.2 F720
G1 Y-3 F1000 ; go outside print area
G92 E0
G1 X60 E9 F1000 ; intro line
G1 X100 E12.5 F1000 ; intro line
M73 Q0 S84

G92 E0
M221 S95

; Don't change E values below. Excessive value can damage the printer.
M907 E430 ; set extruder motor current
G21 ; set units to millimeters
G90 ; use absolute coordinates
M83 ; use relative distances for extrusion
M900 K0.05 ; Filament gcode LA 1.5
M900 K30 ; Filament gcode LA 1.0

M107
;LAYER_CHANGE
;Z:0.2
;HEIGHT:0.2
;BEFORE_LAYER_CHANGE
G92 E0.0
;0.2


G1 E-.8 F2100
G1 Z.2 F720
;AFTER_LAYER_CHANGE
;0.2
G1 X79.895 Y68.634 F10800
G1 Z.2 F720
G1 E.8 F2100
M204 S800
;TYPE:Skirt/Brim
;WIDTH:0.42
G1 F1200
G1 X80.582 Y68.039 E.0285
G1 X81.426 Y67.578 E.03015
G1 X82.298 Y67.322 E.02849
G1 X83.088 Y67.247 E.02488
G1 X159.257 Y67.253 E2.38823
G1 X160.156 Y67.382 E.02848
G1 X161.058 Y67.719 E.03019
G1 X161.822 Y68.21 E.02848
G1 X162.28 Y68.634 E.01957
G1 X162.856 Y69.404 E.03015
G1 X163.134 Y69.963 E.01957
G1 X163.39 Y70.834 E.02846
G1 X163.465 Y71.624 E.02488
G1 X163.465 Y149.324 E2.43623
G1 X163.39 Y150.114 E.02488
G1 X163.134 Y150.986 E.02849
G1 X162.856 Y151.545 E.01957
G1 X162.28 Y152.315 E.03015
G1 X161.593 Y152.91 E.0285
G1 X160.749 Y153.371 E.03015
G1 X159.877 Y153.627 E.02849
G1 X159.088 Y153.701 E.02485
G1 X83.088 Y153.701 E2.38293
G1 X82.298 Y153.627 E.02488
G1 X81.426 Y153.371 E.02849
G1 X80.582 Y152.91 E.03015
G1 X80.097 Y152.516 E.01959
G1 X79.502 Y151.83 E.02847
G1 X79.041 Y150.986 E.03015
G1 X78.785 Y150.114 E.02849
G1 X78.71 Y149.324 E.02488
G1 X78.71 Y71.624 E2.43623
G1 X78.785 Y70.834 E.02488
G1 X79.041 Y69.963 E.02846
G1 X79.319 Y69.404 E.01957
G1 X79.859 Y68.682 E.02827
M204 S1000
; printing object BLTouch-Leveling-Plate_PLA.stl id:0 copy 0
;WIPE_START
G1 F8640
G1 X79.895 Y68.634 E-.01385
G1 X80.582 Y68.039 E-.20985
G1 X81.426 Y67.578 E-.22206
G1 X82.298 Y67.322 E-.20984
G1 X82.92 Y67.263 E-.1444
;WIPE_END
G1 Z.6 F720
G1 X92.248 Y143.824 F10800
G1 Z.2 F720
G1 E.8 F2100
M204 S800
;TYPE:Support material
G1 F1200
G1 X90.418 Y146.994 E.11477
G1 X86.757 Y146.994 E.11479
G1 X84.927 Y143.824 E.11477
G1 X86.757 Y140.654 E.11477
G1 X90.418 Y140.654 E.11479
G1 X92.22 Y143.775 E.113
M204 S1000
G1 X91.759 Y144.331 F10800
M204 S800
G1 F1200
G1 X91.759 Y143.656 E.02116
G1 X91.34 Y142.931 E.02626
G1 X91.34 Y144.718 E.05603
G1 X90.921 Y145.443 E.02626
G1 X90.921 Y142.205 E.10153
G1 X90.502 Y141.479 E.02628
G1 X90.502 Y146.169 E.14705
G1 X90.222 Y146.655 E.01759
G1 X90.083 Y146.655 E.00436
G1 X90.083 Y140.994 E.1775
G1 X89.664 Y140.994 E.01314
G1 X89.664 Y146.655 E.1775
G1 X89.245 Y146.655 E.01314
G1 X89.245 Y140.994 E.1775
G1 X88.826 Y140.994 E.01314
G1 X88.826 Y146.655 E.1775
G1 X88.407 Y146.655 E.01314
G1 X88.407 Y140.994 E.1775
G1 X87.988 Y140.994 E.01314
G1 X87.988 Y146.655 E.1775
G1 X87.569 Y146.655 E.01314
G1 X87.569 Y140.994 E.1775
G1 X87.15 Y140.994 E.01314
G1 X87.15 Y146.655 E.1775
G1 X86.953 Y146.655 E.00618
M73 P0 R83
G1 X86.731 Y146.271 E.01391
G1 X86.731 Y141.378 E.15342
G1 X86.312 Y142.103 E.02626
G1 X86.312 Y145.545 E.10792
G1 X85.893 Y144.819 E.02628
G1 X85.893 Y142.829 E.0624
G1 X85.474 Y143.555 E.02628
G1 X85.474 Y144.433 E.02753
M204 S1000
;WIPE_START
G1 F8640
G1 X85.474 Y143.555 E-.20273
G1 X85.893 Y142.829 E-.19355
G1 X85.893 Y144.578 E-.40372
;WIPE_END
G1 Z.6 F720
G1 X121.533 Y107.084 F10800
G1 Z.2 F720
G1 E.8 F2100
M204 S800
G1 F1200
G1 X122.588 Y107.402 E.03455
G1 X123.197 Y107.783 E.02252
G1 X123.722 Y108.294 E.02297
G1 X124.124 Y108.902 E.02285
G1 X124.385 Y109.57 E.02249
G1 X124.502 Y110.659 E.03434
G1 X124.385 Y111.378 E.02284
G1 X124.124 Y112.047 E.02252
G1 X123.722 Y112.654 E.02283
G1 X123.205 Y113.158 E.02264
G1 X122.242 Y113.693 E.03454
G1 X121.545 Y113.863 E.02249
G1 X120.812 Y113.882 E.02299
G1 X120.096 Y113.747 E.02285
G1 X119.435 Y113.468 E.0225
G1 X118.838 Y113.049 E.02287
G1 X118.348 Y112.52 E.02261
G1 X117.839 Y111.542 E.03457
G1 X117.688 Y110.841 E.02248
G1 X117.688 Y110.108 E.02298
G1 X117.843 Y109.395 E.02288
G1 X118.139 Y108.742 E.02248
G1 X118.838 Y107.899 E.03434
G1 X119.435 Y107.481 E.02285
G1 X120.096 Y107.202 E.0225
G1 X120.812 Y107.066 E.02285
G1 X121.477 Y107.08 E.02086
M204 S1000
G1 X124.02 Y111.864 F10800
M204 S800
G1 F1200
G1 X124.02 Y109.547 E.07265
G1 X123.601 Y108.701 E.0296
G1 X123.601 Y112.247 E.11118
G1 X123.182 Y112.727 E.01998
G1 X123.182 Y108.221 E.14128
G1 X122.763 Y107.893 E.01668
G1 X122.763 Y113.055 E.16185
G1 X122.344 Y113.282 E.01494
G1 X122.344 Y107.666 E.17609
G1 X121.925 Y107.515 E.01396
G1 X121.925 Y113.434 E.18559
G1 X121.507 Y113.525 E.01341
G1 X121.507 Y107.424 E.19129
G1 X121.088 Y107.398 E.01316
G1 X121.088 Y113.55 E.19289
G1 X120.669 Y113.521 E.01317
G1 X120.669 Y107.428 E.19104
G1 X120.25 Y107.513 E.01341
G1 X120.25 Y113.435 E.18568
G1 X119.89 Y113.312 E.01193
G1 X119.831 Y113.283 E.00206
G1 X119.831 Y107.665 E.17615
G1 X119.412 Y107.895 E.01499
G1 X119.412 Y113.053 E.16173
G1 X118.993 Y112.726 E.01666
G1 X118.993 Y108.222 E.14122
G1 X118.574 Y108.7 E.01993
G1 X118.574 Y112.248 E.11125
G1 X118.155 Y111.409 E.0294
G1 X118.155 Y109.08 E.07302
M204 S1000
;WIPE_START
G1 F8640
G1 X118.155 Y111.409 E-.53777
G1 X118.574 Y112.248 E-.21654
G1 X118.574 Y112.05 E-.04569
;WIPE_END
G1 Z.6 F720
G1 X92.248 Y77.124 F10800
G1 Z.2 F720
G1 E.8 F2100
M204 S800
G1 F1200
G1 X90.418 Y80.294 E.11477
G1 X86.757 Y80.294 E.11479
G1 X84.927 Y77.124 E.11477
G1 X86.757 Y73.954 E.11477
G1 X90.418 Y73.954 E.11479
G1 X92.22 Y77.075 E.113
M204 S1000
G1 X91.759 Y77.631 F10800
M204 S800
G1 F1200
G1 X91.759 Y76.956 E.02116
G1 X91.34 Y76.231 E.02626
G1 X91.34 Y78.018 E.05603
G1 X90.921 Y78.743 E.02626
G1 X90.921 Y75.505 E.10153
G1 X90.502 Y74.779 E.02628
G1 X90.502 Y79.469 E.14705
G1 X90.222 Y79.955 E.01759
G1 X90.083 Y79.955 E.00436
G1 X90.083 Y74.294 E.1775
G1 X89.664 Y74.294 E.01314
G1 X89.664 Y79.955 E.1775
G1 X89.245 Y79.955 E.01314
G1 X89.245 Y74.294 E.1775
G1 X88.826 Y74.294 E.01314
G1 X88.826 Y79.955 E.1775
G1 X88.407 Y79.955 E.01314
G1 X88.407 Y74.294 E.1775
G1 X87.988 Y74.294 E.01314
G1 X87.988 Y79.955 E.1775
G1 X87.569 Y79.955 E.01314
G1 X87.569 Y74.294 E.1775
G1 X87.15 Y74.294 E.01314
G1 X87.15 Y79.955 E.1775
G1 X86.953 Y79.955 E.00618
G1 X86.731 Y79.571 E.01391
G1 X86.731 Y74.678 E.15342
G1 X86.312 Y75.403 E.02626
G1 X86.312 Y78.845 E.10792
G1 X85.893 Y78.119 E.02628
G1 X85.893 Y76.129 E.0624
G1 X85.474 Y76.855 E.02628
G1 X85.474 Y77.733 E.02753
M204 S1000
;WIPE_START
G1 F8640
G1 X85.474 Y76.855 E-.20273
G1 X85.893 Y76.129 E-.19355
G1 X85.893 Y77.878 E-.40372
;WIPE_END
G1 Z.6 F720
G1 X157.248 Y77.124 F10800
G1 Z.2 F720
G1 E.8 F2100
M204 S800
G1 F1200
G1 X155.418 Y80.294 E.11477
G1 X151.757 Y80.294 E.11479
G1 X149.927 Y77.124 E.11477
G1 X151.757 Y73.954 E.11477
G1 X155.418 Y73.954 E.11479
G1 X157.22 Y77.075 E.113
M204 S1000
G1 X156.701 Y77.733 F10800
M204 S800
G1 F1200
G1 X156.701 Y76.855 E.02753
G1 X156.282 Y76.129 E.02628
G1 X156.282 Y78.119 E.0624
G1 X155.863 Y78.845 E.02628
G1 X155.863 Y75.403 E.10792
G1 X155.444 Y74.678 E.02626
G1 X155.444 Y79.571 E.15342
G1 X155.222 Y79.955 E.01391
G1 X155.025 Y79.955 E.00618
G1 X155.025 Y74.294 E.1775
G1 X154.606 Y74.294 E.01314
G1 X154.606 Y79.955 E.1775
G1 X154.187 Y79.955 E.01314
G1 X154.187 Y74.294 E.1775
G1 X153.768 Y74.294 E.01314
G1 X153.768 Y79.955 E.1775
G1 X153.349 Y79.955 E.01314
G1 X153.349 Y74.294 E.1775
G1 X152.93 Y74.294 E.01314
G1 X152.93 Y79.955 E.1775
G1 X152.511 Y79.955 E.01314
G1 X152.511 Y74.294 E.1775
G1 X152.092 Y74.294 E.01314
G1 X152.092 Y79.955 E.1775
G1 X151.953 Y79.955 E.00436
G1 X151.673 Y79.469 E.01759
G1 X151.673 Y74.779 E.14705
G1 X151.254 Y75.505 E.02628
G1 X151.254 Y78.743 E.10153
G1 X150.835 Y78.018 E.02626
G1 X150.835 Y76.231 E.05603
G1 X150.416 Y76.956 E.02626
G1 X150.416 Y77.631 E.02116
M204 S1000
;WIPE_START
G1 F8640
G1 X150.416 Y76.956 E-.15586
G1 X150.835 Y76.231 E-.19335
G1 X150.835 Y78.018 E-.41262
G1 X150.918 Y78.161 E-.03817
;WIPE_END
G1 Z.6 F720
G1 X157.248 Y143.824 F10800
G1 Z.2 F720
G1 E.8 F2100
M204 S800
G1 F1200
G1 X155.418 Y146.994 E.11477
G1 X151.757 Y146.994 E.11479
G1 X149.927 Y143.824 E.11477
G1 X151.757 Y140.654 E.11477
G1 X155.418 Y140.654 E.11479
G1 X157.22 Y143.775 E.113
M204 S1000
G1 X156.701 Y144.433 F10800
M73 Q1 S84
M204 S800
G1 F1200
G1 X156.701 Y143.555 E.02753
G1 X156.282 Y142.829 E.02628
G1 X156.282 Y144.819 E.0624
G1 X155.863 Y145.545 E.02628
G1 X155.863 Y142.103 E.10792
G1 X155.444 Y141.378 E.02626
G1 X155.444 Y146.271 E.15342
G1 X155.222 Y146.655 E.01391
M73 P1 R83
G1 X155.025 Y146.655 E.00618
G1 X155.025 Y140.994 E.1775
G1 X154.606 Y140.994 E.01314
G1 X154.606 Y146.655 E.1775
G1 X154.187 Y146.655 E.01314
G1 X154.187 Y140.994 E.1775
G1 X153.768 Y140.994 E.01314
G1 X153.768 Y146.655 E.1775
G1 X153.349 Y146.655 E.01314
G1 X153.349 Y140.994 E.1775
G1 X152.93 Y140.994 E.01314
G1 X152.93 Y146.655 E.1775
G1 X152.511 Y146.655 E.01314
G1 X152.511 Y140.994 E.1775
G1 X152.092 Y140.994 E.01314
G1 X152.092 Y146.655 E.1775
G1 X151.953 Y146.655 E.00436
G1 X151.673 Y146.169 E.01759
G1 X151.673 Y141.479 E.14705
G1 X151.254 Y142.205 E.02628
G1 X151.254 Y145.443 E.10153
G1 X150.835 Y144.718 E.02626
G1 X150.835 Y142.931 E.05603
G1 X150.416 Y143.656 E.02626
G1 X150.416 Y144.331 E.02116
M204 S1000
;WIPE_START
G1 F8640
G1 X150.416 Y143.656 E-.15586
G1 X150.835 Y142.931 E-.19335
G1 X150.835 Y144.718 E-.41262
G1 X150.918 Y144.861 E-.03817
;WIPE_END
G1 Z.6 F720
G1 X82.012 Y149.815 F10800
G1 Z.2 F720
G1 E.8 F2100
M204 S800
;TYPE:Perimeter
;WIDTH:0.419999
G1 F1200
G1 X81.942 Y149.661 E.0053
G1 X81.875 Y149.296 E.01164
G1 X81.875 Y72.412 E2.41064
G1 X81.906 Y71.455 E.03002
G1 X82.001 Y71.128 E.01068
G1 X82.185 Y70.842 E.01066
G1 X82.442 Y70.62 E.01065
G1 X82.751 Y70.478 E.01066
G1 X83.116 Y70.411 E.01164
G1 X158.945 Y70.411 E2.37756
G1 X159.428 Y70.467 E.01525
M73 Q1 S83
G1 X159.74 Y70.609 E.01075
G1 X159.999 Y70.834 E.01076
G1 X160.185 Y71.123 E.01078
G1 X160.249 Y71.34 E.00709
G1 X160.3 Y71.697 E.01131
G1 X160.3 Y148.537 E2.40926
G1 X160.269 Y149.493 E.02999
G1 X160.174 Y149.821 E.01071
G1 X159.99 Y150.106 E.01064
G1 X159.733 Y150.329 E.01067
G1 X159.424 Y150.47 E.01065
G1 X159.059 Y150.537 E.01164
G1 X83.875 Y150.537 E2.35734
G1 X82.918 Y150.506 E.03002
G1 X82.591 Y150.41 E.01069
G1 X82.306 Y150.227 E.01062
G1 X82.083 Y149.97 E.01067
G1 X82.037 Y149.87 E.00345
M204 S1000
G1 X81.644 Y149.984 F10800
M204 S800
;TYPE:External perimeter
G1 F1200
G1 X81.58 Y149.767 E.00709
G1 X81.498 Y149.31 E.01456
G1 X81.498 Y71.768 E2.43127
G1 X81.564 Y71.177 E.01865
G1 X81.752 Y70.766 E.01417
G1 X82.048 Y70.424 E.01418
G1 X82.428 Y70.18 E.01416
G1 X82.645 Y70.116 E.00709
G1 X83.102 Y70.034 E.01456
G1 X158.945 Y70.034 E2.378
G1 X159.535 Y70.101 E.01862
G1 X159.946 Y70.289 E.01417
G1 X160.287 Y70.585 E.01416
G1 X160.532 Y70.965 E.01418
G1 X160.661 Y71.405 E.01438
G1 X160.678 Y71.697 E.00917
G1 X160.678 Y149.18 E2.42942
G1 X160.611 Y149.771 E.01865
G1 X160.423 Y150.182 E.01417
G1 X160.127 Y150.524 E.01418
G1 X159.747 Y150.768 E.01416
G1 X159.53 Y150.832 E.00709
G1 X159.073 Y150.914 E.01456
G1 X83.232 Y150.914 E2.37794
G1 X82.64 Y150.847 E.01868
G1 X82.229 Y150.66 E.01416
G1 X81.888 Y150.364 E.01416
G1 X81.676 Y150.034 E.0123
M204 S1000
;WIPE_START
G1 F8640
G1 X81.644 Y149.984 E-.01371
G1 X81.58 Y149.767 E-.05224
G1 X81.498 Y149.31 E-.10721
G1 X81.498 Y146.595 E-.62684
;WIPE_END
G1 Z.6 F720
G1 X150.923 Y72.907 F10800
G1 Z.2 F720
G1 E.8 F2100
M204 S800
;TYPE:Perimeter
G1 F1200
G1 X151.051 Y72.774 E.00579
G1 X151.352 Y72.687 E.00982
G1 X155.823 Y72.687 E.14018
G1 X156.124 Y72.774 E.00982
G1 X156.313 Y72.97 E.00854
G1 X158.548 Y76.841 E.14015
G1 X158.624 Y77.124 E.00919
G1 X158.548 Y77.407 E.00919
G1 X156.313 Y81.278 E.14015
G1 X156.118 Y81.478 E.00876
G1 X155.823 Y81.561 E.00961
G1 X151.352 Y81.561 E.14018
G1 X151.059 Y81.479 E.00954
G1 X150.863 Y81.278 E.0088
G1 X148.627 Y77.407 E.14017
G1 X148.552 Y77.148 E.00845
M73 P1 R82
G1 X148.593 Y76.91 E.00757
G1 X148.627 Y76.841 E.00241
G1 X150.863 Y72.97 E.14017
G1 X150.882 Y72.95 E.00086
M204 S1000
G1 X151.189 Y73.158 F10800
M204 S800
;TYPE:External perimeter
G1 F1200
G1 X151.32 Y73.067 E.005
G1 X151.352 Y73.064 E.00101
G1 X155.823 Y73.064 E.14018
G1 X155.923 Y73.093 E.00326
G1 X156.241 Y73.6 E.01876
G1 X158.221 Y77.03 E.12418
G1 X158.244 Y77.157 E.00405
G1 X155.986 Y81.09 E.14219
G1 X155.852 Y81.182 E.0051
G1 X151.352 Y81.184 E.14109
G1 X151.208 Y81.117 E.00498
G1 X148.954 Y77.218 E.14121
G1 X148.935 Y77.075 E.00452
G1 X148.954 Y77.03 E.00153
G1 X151.159 Y73.21 E.13829
M204 S1000
;WIPE_START
G1 F8640
G1 X151.189 Y73.158 E-.01386
G1 X151.32 Y73.067 E-.03683
G1 X151.352 Y73.064 E-.00742
G1 X154.565 Y73.064 E-.74189
;WIPE_END
G1 Z.6 F720
G1 X149.694 Y84.665 F10800
G1 Z.2 F720
G1 E.8 F2100
M204 S800
;TYPE:Perimeter
G1 F1200
G1 X149.832 Y84.848 E.00719
G1 X149.875 Y85.065 E.00694
G1 X149.875 Y108.196 E.72526
G1 X149.805 Y108.467 E.00878
G1 X149.603 Y108.679 E.00918
G1 X149.309 Y108.761 E.00957
G1 X135.366 Y108.761 E.43717
G1 X135.178 Y108.729 E.00598
G1 X134.955 Y108.584 E.00834
G1 X134.816 Y108.328 E.00913
G1 X134.8 Y107.432 E.0281
G1 X134.8 Y99.034 E.26331
G1 X134.889 Y98.73 E.00993
G1 X134.96 Y98.64 E.00359
G1 X148.627 Y84.559 E.61526
G1 X148.817 Y84.43 E.0072
G1 X149.04 Y84.387 E.00712
G1 X149.245 Y84.428 E.00655
G1 X149.656 Y84.62 E.01422
M204 S1000
G1 X149.427 Y84.917 F10800
M204 S800
;TYPE:External perimeter
G1 F1200
G1 X149.498 Y85.065 E.00515
G1 X149.498 Y108.196 E.72526
G1 X149.436 Y108.335 E.00477
G1 X149.309 Y108.384 E.00427
G1 X135.366 Y108.384 E.43717
G1 X135.229 Y108.325 E.00468
G1 X135.178 Y108.196 E.00435
G1 X135.178 Y99.034 E.28727
G1 X135.231 Y98.902 E.00446
G1 X148.897 Y84.821 E.61524
G1 X149.035 Y84.764 E.00468
G1 X149.371 Y84.895 E.01131
M204 S1000
;WIPE_START
G1 F8640
G1 X149.427 Y84.917 E-.01389
G1 X149.498 Y85.065 E-.0379
G1 X149.498 Y88.305 E-.74821
;WIPE_END
G1 Z.6 F720
G1 X146.411 Y81.629 F10800
G1 Z.2 F720
G1 E.8 F2100
M204 S800
;TYPE:Perimeter
G1 F1200
G1 X146.424 Y81.76 E.00413
G1 X146.38 Y81.907 E.00481
G1 X146.168 Y82.173 E.01067
G1 X132.176 Y96.59 E.62992
G1 X131.902 Y96.746 E.00989
G1 X131.77 Y96.761 E.00417
G1 X123.695 Y96.761 E.25319
G1 X123.192 Y96.734 E.01579
G1 X122.935 Y96.562 E.0097
G1 X122.812 Y96.311 E.00876
G1 X122.8 Y96.196 E.00363
G1 X122.8 Y81.403 E.46382
G1 X122.883 Y81.108 E.00961
M73 Q2 S83
G1 X123.095 Y80.906 E.00918
G1 X123.366 Y80.837 E.00877
G1 X145.75 Y80.837 E.70183
G1 X145.91 Y80.86 E.00507
M73 P2 R82
G1 X146.18 Y81.035 E.01009
G1 X146.396 Y81.479 E.01548
G1 X146.405 Y81.57 E.00287
M204 S1000
G1 X146.052 Y81.651 F10800
M204 S800
;TYPE:External perimeter
G1 F1200
G1 X146 Y81.804 E.00507
G1 X131.905 Y96.327 E.63455
G1 X131.77 Y96.384 E.00459
G1 X123.695 Y96.384 E.25319
G1 X123.266 Y96.355 E.01348
G1 X123.181 Y96.234 E.00464
G1 X123.178 Y96.196 E.0012
G1 X123.178 Y81.403 E.46382
G1 X123.246 Y81.257 E.00505
