; generated by PrusaSlicer 2.7.1+win64 on 2024-03-22 at 09:15:46 UTC


;
;
; 

; external perimeters extrusion width = 0.45mm
; perimeters extrusion width = 0.45mm
; infill extrusion width = 0.45mm
; solid infill extrusion width = 0.45mm
; top infill extrusion width = 0.40mm
; support material extrusion width = 0.35mm
; first layer extrusion width = 0.42mm

M73 P0 R60
M73 Q0 S62
M201 X1000 Y1000 Z200 E5000 ; sets maximum accelerations, mm/sec^2
M203 X200 Y200 Z12 E120 ; sets maximum feedrates, mm / sec
M204 S1250 T1250 ; sets acceleration (S) and retract acceleration (R), mm/sec^2
M205 X8.00 Y8.00 Z0.40 E4.50 ; sets the jerk limits, mm/sec
M205 S0 T0 ; sets the minimum extruding and travel feed rate, mm/sec

; printing object MEANWELL RSP-75-24_Abdeckung.stl id:0 copy 0
; stop printing object MEANWELL RSP-75-24_Abdeckung.stl id:0 copy 0

;TYPE:Custom
M862.3 P "MK3S" ; printer model check
M862.1 P0.4 ; nozzle diameter check
M115 U3.13.2 ; tell printer latest fw version
G90 ; use absolute coordinates
M83 ; extruder relative mode
M104 S215 ; set extruder temp
M140 S60 ; set bed temp
M190 S60 ; wait for bed temp
M109 S215 ; wait for extruder temp
G28 W ; home all without mesh bed level
G80 X73.742 Y92.2631 W112.53 H32.6312 ; mesh bed levelling

G1 Z0.2 F720
G1 Y-3 F1000 ; go outside print area
G92 E0
G1 X60 E9 F1000 ; intro line
G1 X100 E12.5 F1000 ; intro line

G92 E0
M221 S95

; Don't change E values below. Excessive value can damage the printer.
M907 E430 ; set extruder motor current
G21 ; set units to millimeters
G90 ; use absolute coordinates
M83 ; use relative distances for extrusion
M900 K0.05 ; Filament gcode LA 1.5
M900 K30 ; Filament gcode LA 1.0

M107
;LAYER_CHANGE
;Z:0.2
;HEIGHT:0.2
;BEFORE_LAYER_CHANGE
G92 E0.0
;0.2


G1 E-.8 F2100
G1 Z.2 F720
;AFTER_LAYER_CHANGE
;0.2
G1 X78.501 Y93.115 F10800
G1 Z.2 F720
G1 E.8 F2100
M204 S800
;TYPE:Skirt/Brim
;WIDTH:0.42
G1 F1200
G1 X79.16 Y92.735 E.02385
G1 X79.718 Y92.548 E.01845
G1 X80.5 Y92.452 E.0247
G1 X179.507 Y92.452 E3.10429
G1 X180.464 Y92.593 E.03033
G1 X181.37 Y93.015 E.03134
G1 X181.954 Y93.505 E.0239
G1 X182.527 Y94.324 E.03134
M73 P0 R59
G1 X185.969 Y104.908 E.34896
G1 X186.083 Y105.635 E.02307
G1 X186.083 Y116.136 E.32925
G1 X185.501 Y117.695 E.05218
G1 X181.05 Y122.804 E.21245
G1 X180.436 Y123.349 E.02574
G1 X179.562 Y123.926 E.03284
G1 X178.862 Y124.254 E.02424
G1 X177.875 Y124.556 E.03236
G1 X176.507 Y124.706 E.04315
G1 X82.991 Y124.683 E2.93213
G1 X81.842 Y124.481 E.03658
M73 Q0 S61
G1 X80.941 Y124.165 E.02994
G1 X79.929 Y123.607 E.03623
G1 X79.057 Y122.896 E.03528
G1 X74.513 Y117.695 E.21655
G1 X73.931 Y116.136 E.05218
G1 X73.931 Y105.635 E.32925
G1 X74.044 Y104.908 E.02307
G1 X77.413 Y94.482 E.34354
G1 X77.794 Y93.823 E.02387
G1 X78.458 Y93.158 E.02947
M204 S1000
; printing object MEANWELL RSP-75-24_Abdeckung.stl id:0 copy 0
;WIPE_START
G1 F8640
G1 X78.501 Y93.115 E-.01404
G1 X79.16 Y92.735 E-.17565
G1 X79.718 Y92.548 E-.13589
G1 X80.5 Y92.452 E-.18192
G1 X81.767 Y92.452 E-.2925
;WIPE_END
G1 Z.6 F720
G1 X183.706 Y116.136 F10800
G1 Z.2 F720
G1 E.8 F2100
M204 S800
;TYPE:Support material
G1 F1200
G1 X180.987 Y116.136 E.08525
G1 X180.987 Y105.635 E.32925
G1 X183.706 Y105.635 E.08525
G1 X183.706 Y116.08 E.3275
M204 S1000
G1 X183.217 Y115.967 F10800
M204 S800
G1 F1200
G1 X183.217 Y105.975 E.31329
G1 X182.798 Y105.975 E.01314
G1 X182.798 Y115.797 E.30796
G1 X182.379 Y115.797 E.01314
G1 X182.379 Y105.975 E.30796
G1 X181.96 Y105.975 E.01314
G1 X181.96 Y115.797 E.30796
G1 X181.541 Y115.797 E.01314
G1 X181.541 Y105.805 E.31329
M204 S1000
;WIPE_START
G1 F8640
G1 X181.541 Y109.27 E-.8
;WIPE_END
G1 Z.6 F720
G1 X79.027 Y116.136 F10800
G1 Z.2 F720
G1 E.8 F2100
M204 S800
G1 F1200
G1 X76.308 Y116.136 E.08525
G1 X76.308 Y105.635 E.32925
G1 X79.027 Y105.635 E.08525
G1 X79.027 Y116.08 E.3275
M204 S1000
G1 X78.473 Y115.967 F10800
M204 S800
G1 F1200
G1 X78.473 Y105.975 E.31329
G1 X78.054 Y105.975 E.01314
G1 X78.054 Y115.797 E.30796
G1 X77.635 Y115.797 E.01314
G1 X77.635 Y105.975 E.30796
G1 X77.216 Y105.975 E.01314
G1 X77.216 Y115.797 E.30796
G1 X76.797 Y115.797 E.01314
G1 X76.797 Y105.805 E.31329
M204 S1000
;WIPE_START
G1 F8640
G1 X76.797 Y109.27 E-.8
;WIPE_END
G1 Z.6 F720
G1 X80.351 Y95.698 F10800
G1 Z.2 F720
G1 E.8 F2100
M204 S800
;TYPE:Perimeter
;WIDTH:0.419999
G1 F1200
G1 X80.59 Y95.616 E.00792
G1 X179.379 Y95.616 E3.09745
G1 X179.62 Y95.668 E.00773
M73 P1 R59
G1 X179.72 Y95.867 E.00698
G1 X179.72 Y118.298 E.70331
G1 X179.655 Y118.955 E.0207
M73 Q1 S61
G1 X179.472 Y119.558 E.01976
G1 X179.176 Y120.112 E.01969
G1 X178.777 Y120.599 E.01974
G1 X178.293 Y120.996 E.01963
G1 X177.728 Y121.297 E.02007
G1 X177.134 Y121.477 E.01946
G1 X176.474 Y121.542 E.02079
G1 X171.59 Y121.542 E.15313
G1 X171.375 Y121.46 E.00721
G1 X171.294 Y121.246 E.00717
G1 X171.294 Y106.323 E.4679
G1 X171.178 Y105.348 E.03079
G1 X170.869 Y104.474 E.02907
G1 X170.38 Y103.687 E.02905
G1 X169.734 Y103.024 E.02902
G1 X168.959 Y102.515 E.02907
G1 X168.094 Y102.184 E.02904
G1 X167.178 Y102.048 E.02904
G1 X166.253 Y102.111 E.02907
G1 X165.361 Y102.373 E.02915
G1 X164.527 Y102.836 E.02991
G1 X163.855 Y103.427 E.02806
G1 X163.367 Y104.068 E.02526
G1 X163.211 Y104.375 E.0108
G1 X162.927 Y105.019 E.02207
G1 X162.754 Y105.805 E.02523
G1 X162.72 Y106.323 E.01628
G1 X162.72 Y121.246 E.4679
G1 X162.68 Y121.429 E.00587
G1 X162.569 Y121.519 E.00448
G1 X162.059 Y121.541 E.01601
G1 X161.86 Y121.452 E.00684
G1 X161.794 Y121.294 E.00537
G1 X161.794 Y106.323 E.4694
G1 X161.678 Y105.348 E.03079
G1 X161.421 Y104.585 E.02524
G1 X161.254 Y104.284 E.01079
G1 X160.88 Y103.687 E.02209
G1 X160.371 Y103.149 E.02322
G1 X160.012 Y102.874 E.01418
G1 X159.459 Y102.515 E.02067
G1 X158.594 Y102.184 E.02904
G1 X157.678 Y102.048 E.02904
G1 X156.753 Y102.111 E.02907
G1 X155.861 Y102.373 E.02915
G1 X155.027 Y102.836 E.02991
G1 X154.355 Y103.427 E.02806
G1 X153.867 Y104.068 E.02526
G1 X153.711 Y104.375 E.0108
G1 X153.427 Y105.019 E.02207
G1 X153.254 Y105.805 E.02523
G1 X153.22 Y106.323 E.01628
G1 X153.22 Y121.246 E.4679
G1 X153.18 Y121.429 E.00587
G1 X153.069 Y121.519 E.00448
G1 X152.559 Y121.541 E.01601
G1 X152.36 Y121.452 E.00684
G1 X152.294 Y121.294 E.00537
G1 X152.294 Y106.323 E.4694
G1 X152.178 Y105.348 E.03079
G1 X151.921 Y104.585 E.02524
G1 X151.754 Y104.284 E.01079
G1 X151.38 Y103.687 E.02209
G1 X150.871 Y103.149 E.02322
G1 X150.512 Y102.874 E.01418
G1 X149.959 Y102.515 E.02067
G1 X149.094 Y102.184 E.02904
G1 X148.178 Y102.048 E.02904
G1 X147.253 Y102.111 E.02907
G1 X146.361 Y102.373 E.02915
G1 X145.527 Y102.836 E.02991
G1 X144.855 Y103.427 E.02806
G1 X144.367 Y104.068 E.02526
G1 X144.211 Y104.375 E.0108
G1 X143.927 Y105.019 E.02207
G1 X143.754 Y105.805 E.02523
G1 X143.72 Y106.323 E.01628
G1 X143.72 Y121.246 E.4679
G1 X143.68 Y121.429 E.00587
G1 X143.569 Y121.519 E.00448
G1 X143.059 Y121.541 E.01601
G1 X142.86 Y121.452 E.00684
G1 X142.794 Y121.294 E.00537
G1 X142.794 Y106.323 E.4694
G1 X142.678 Y105.348 E.03079
G1 X142.421 Y104.585 E.02524
G1 X142.254 Y104.284 E.01079
G1 X141.88 Y103.687 E.02209
G1 X141.371 Y103.149 E.02322
G1 X141.012 Y102.874 E.01418
G1 X140.459 Y102.515 E.02067
G1 X139.594 Y102.184 E.02904
G1 X138.678 Y102.048 E.02904
G1 X137.753 Y102.111 E.02907
G1 X136.861 Y102.373 E.02915
G1 X136.027 Y102.836 E.02991
G1 X135.355 Y103.427 E.02806
G1 X134.867 Y104.068 E.02526
G1 X134.711 Y104.375 E.0108
G1 X134.427 Y105.019 E.02207
G1 X134.254 Y105.805 E.02523
G1 X134.22 Y106.323 E.01628
G1 X134.22 Y121.074 E.46251
G1 X134.168 Y121.442 E.01165
G1 X134.058 Y121.509 E.00404
G1 X133.559 Y121.541 E.01568
G1 X133.36 Y121.452 E.00684
G1 X133.294 Y121.294 E.00537
G1 X133.294 Y106.323 E.4694
G1 X133.178 Y105.348 E.03079
G1 X132.921 Y104.585 E.02524
G1 X132.754 Y104.284 E.01079
G1 X132.38 Y103.687 E.02209
G1 X131.871 Y103.149 E.02322
G1 X131.512 Y102.874 E.01418
G1 X130.959 Y102.515 E.02067
G1 X130.094 Y102.184 E.02904
G1 X129.178 Y102.048 E.02904
G1 X128.253 Y102.111 E.02907
G1 X127.364 Y102.372 E.02905
G1 X126.552 Y102.817 E.02903
G1 X125.855 Y103.427 E.02904
G1 X125.304 Y104.172 E.02905
G1 X124.927 Y105.019 E.02907
G1 X124.754 Y105.805 E.02523
G1 X124.72 Y106.323 E.01628
G1 X124.72 Y121.201 E.46649
G1 X124.668 Y121.442 E.00773
G1 X124.472 Y121.542 E.0069
G1 X83.54 Y121.542 E1.28339
G1 X82.879 Y121.477 E.02083
G1 X82.277 Y121.294 E.01973
G1 X81.721 Y120.996 E.01978
G1 X81.24 Y120.601 E.01951
G1 X80.838 Y120.112 E.01985
G1 X80.541 Y119.557 E.01974
G1 X80.358 Y118.955 E.01973
G1 X80.294 Y118.298 E.0207
G1 X80.294 Y95.911 E.70193
G1 X80.336 Y95.756 E.00504
M204 S1000
G1 X80.004 Y95.546 F10800
M204 S800
;TYPE:External perimeter
G1 F1200
G1 X80.207 Y95.327 E.00936
G1 X80.541 Y95.239 E.01083
G1 X179.379 Y95.239 E3.09899
G1 X179.807 Y95.327 E.0137
G1 X179.949 Y95.447 E.00583
G1 X180.035 Y95.631 E.00637
G1 X180.097 Y95.867 E.00765
G1 X180.097 Y118.317 E.7039
G1 X180.027 Y119.029 E.02243
G1 X179.822 Y119.703 E.02209
G1 X179.491 Y120.322 E.02201
G1 X179.045 Y120.867 E.02208
G1 X178.503 Y121.311 E.02197
G1 X177.872 Y121.647 E.02241
G1 X177.208 Y121.848 E.02175
G1 X176.492 Y121.919 E.02256
G1 X171.634 Y121.919 E.15232
G1 X171.215 Y121.832 E.01342
G1 X171.003 Y121.62 E.0094
G1 X170.917 Y121.295 E.01054
G1 X170.917 Y106.323 E.46944
G1 X170.82 Y105.468 E.02698
G1 X170.546 Y104.669 E.02648
G1 X170.107 Y103.947 E.02649
G1 X169.522 Y103.336 E.02652
G1 X168.82 Y102.865 E.02651
G1 X168.033 Y102.557 E.0265
G1 X167.198 Y102.424 E.02651
G1 X166.354 Y102.474 E.02651
G1 X165.54 Y102.705 E.02653
G1 X164.772 Y103.123 E.02742
G1 X164.155 Y103.655 E.02554
G1 X163.779 Y104.15 E.01949
G1 X163.553 Y104.533 E.01394
G1 X163.296 Y105.1 E.01952
G1 X163.123 Y105.886 E.02523
G1 X163.097 Y106.323 E.01373
G1 X163.097 Y121.074 E.46251
G1 X163.076 Y121.421 E.0109
G1 X162.956 Y121.705 E.00967
G1 X162.698 Y121.873 E.00965
G1 X162.274 Y121.913 E.01335
G1 X161.815 Y121.881 E.01443
G1 X161.561 Y121.703 E.00972
G1 X161.489 Y121.549 E.00533
G1 X161.417 Y121.311 E.0078
G1 X161.417 Y106.323 E.46994
G1 X161.32 Y105.468 E.02698
G1 X161.063 Y104.706 E.02521
G1 X160.931 Y104.478 E.00826
G1 X160.607 Y103.947 E.0195
G1 X160.097 Y103.409 E.02324
G1 X159.8 Y103.186 E.01164
G1 X159.32 Y102.865 E.01811
G1 X158.533 Y102.557 E.0265
G1 X157.698 Y102.424 E.02651
G1 X156.854 Y102.474 E.02651
G1 X156.04 Y102.705 E.02653
G1 X155.272 Y103.123 E.02742
G1 X154.655 Y103.655 E.02554
G1 X154.279 Y104.15 E.01949
G1 X154.053 Y104.533 E.01394
G1 X153.796 Y105.1 E.01952
G1 X153.623 Y105.886 E.02523
G1 X153.597 Y106.323 E.01373
G1 X153.597 Y121.074 E.46251
G1 X153.576 Y121.421 E.0109
G1 X153.456 Y121.705 E.00967
G1 X153.198 Y121.873 E.00965
G1 X152.774 Y121.913 E.01335
G1 X152.315 Y121.881 E.01443
G1 X152.061 Y121.703 E.00972
G1 X151.989 Y121.549 E.00533
G1 X151.917 Y121.311 E.0078
G1 X151.917 Y106.323 E.46994
G1 X151.82 Y105.468 E.02698
G1 X151.563 Y104.706 E.02521
G1 X151.431 Y104.478 E.00826
G1 X151.107 Y103.947 E.0195
G1 X150.597 Y103.409 E.02324
G1 X150.3 Y103.186 E.01164
G1 X149.82 Y102.865 E.01811
G1 X149.033 Y102.557 E.0265
G1 X148.198 Y102.424 E.02651
G1 X147.354 Y102.474 E.02651
G1 X146.54 Y102.705 E.02653
G1 X145.772 Y103.123 E.02742
G1 X145.155 Y103.655 E.02554
G1 X144.779 Y104.15 E.01949
G1 X144.553 Y104.533 E.01394
G1 X144.296 Y105.1 E.01952
G1 X144.123 Y105.886 E.02523
G1 X144.097 Y106.323 E.01373
G1 X144.097 Y121.074 E.46251
G1 X144.076 Y121.421 E.0109
G1 X143.956 Y121.705 E.00967
G1 X143.698 Y121.873 E.00965
G1 X143.274 Y121.913 E.01335
G1 X142.815 Y121.881 E.01443
G1 X142.561 Y121.703 E.00972
G1 X142.489 Y121.549 E.00533
G1 X142.417 Y121.311 E.0078
G1 X142.417 Y106.323 E.46994
G1 X142.32 Y105.468 E.02698
G1 X142.063 Y104.706 E.02521
G1 X141.931 Y104.478 E.00826
G1 X141.607 Y103.947 E.0195
G1 X141.097 Y103.409 E.02324
G1 X140.8 Y103.186 E.01164
G1 X140.32 Y102.865 E.01811
G1 X139.533 Y102.557 E.0265
G1 X138.698 Y102.424 E.02651
G1 X137.854 Y102.474 E.02651
G1 X137.04 Y102.705 E.02653
G1 X136.272 Y103.123 E.02742
G1 X135.655 Y103.655 E.02554
G1 X135.279 Y104.15 E.01949
G1 X135.053 Y104.533 E.01394
G1 X134.796 Y105.1 E.01952
G1 X134.623 Y105.886 E.02523
G1 X134.597 Y106.323 E.01373
G1 X134.597 Y121.203 E.46655
G1 X134.509 Y121.629 E.01364
G1 X134.389 Y121.771 E.00583
G1 X134.098 Y121.907 E.01007
G1 X133.774 Y121.913 E.01016
G1 X133.315 Y121.881 E.01443
G1 X133.061 Y121.703 E.00972
G1 X132.989 Y121.549 E.00533
G1 X132.917 Y121.311 E.0078
G1 X132.917 Y106.323 E.46994
G1 X132.82 Y105.468 E.02698
G1 X132.563 Y104.706 E.02521
G1 X132.431 Y104.478 E.00826
G1 X132.107 Y103.947 E.0195
G1 X131.597 Y103.409 E.02324
G1 X131.3 Y103.186 E.01164
G1 X130.82 Y102.865 E.01811
G1 X130.033 Y102.557 E.0265
G1 X129.198 Y102.424 E.02651
G1 X128.354 Y102.474 E.02651
G1 X127.541 Y102.705 E.0265
G1 X126.796 Y103.105 E.02651
G1 X126.155 Y103.655 E.02648
G1 X125.647 Y104.331 E.02651
G1 X125.296 Y105.1 E.0265
G1 X125.123 Y105.886 E.02523
G1 X125.097 Y106.323 E.01373
G1 X125.097 Y121.201 E.46649
G1 X125.032 Y121.538 E.01076
G1 X124.948 Y121.7 E.00572
G1 X124.805 Y121.81 E.00566
G1 X124.489 Y121.919 E.01048
G1 X83.522 Y121.919 E1.28449
G1 X82.805 Y121.848 E.02259
M73 P2 R58
G1 X82.131 Y121.644 E.02208
G1 X81.51 Y121.311 E.02209
G1 X80.972 Y120.869 E.02183
G1 X80.523 Y120.323 E.02216
G1 X80.191 Y119.702 E.02208
G1 X79.987 Y119.029 E.02205
G1 X79.917 Y118.317 E.02243
G1 X79.917 Y95.855 E.70428
G1 X79.988 Y95.603 E.00821
M73 Q2 S61
M204 S1000
;WIPE_START
G1 F8640
G1 X80.004 Y95.546 E-.01367
G1 X80.207 Y95.327 E-.06895
G1 X80.541 Y95.239 E-.07975
G1 X83.302 Y95.239 E-.63763
;WIPE_END
G1 Z.6 F720
G1 X178.743 Y95.785 F10800
G1 Z.2 F720
G1 E.8 F2100
M204 S800
;TYPE:Solid infill
;WIDTH:0.420778
G1 F1200
G1 X179.38 Y96.423 E.02833
G1 X179.38 Y96.958 E.01681
G1 X178.378 Y95.955 E.04454
G1 X177.844 Y95.955 E.01678
G1 X179.38 Y97.492 E.06827
G1 X179.38 Y98.026 E.01678
G1 X177.309 Y95.955 E.09202
G1 X176.775 Y95.955 E.01678
G1 X179.38 Y98.561 E.11577
G1 X179.38 Y99.095 E.01678
M73 Q2 S60
G1 X176.24 Y95.955 E.13952
G1 X175.706 Y95.955 E.01678
G1 X179.38 Y99.629 E.16325
G1 X179.38 Y100.164 E.01681
G1 X175.172 Y95.955 E.187
G1 X174.637 Y95.955 E.01681
G1 X179.38 Y100.698 E.21075
G1 X179.38 Y101.233 E.01681
G1 X174.103 Y95.955 E.2345
G1 X173.569 Y95.955 E.01678
G1 X179.38 Y101.767 E.25822
G1 X179.38 Y102.301 E.01678
G1 X173.034 Y95.955 E.28197
G1 X172.5 Y95.955 E.01678
G1 X179.38 Y102.836 E.30572
G1 X179.38 Y103.37 E.01678
G1 X171.965 Y95.955 E.32947
G1 X171.431 Y95.955 E.01678
G1 X179.38 Y103.904 E.3532
G1 X179.38 Y104.439 E.01681
G1 X170.897 Y95.955 E.37695
G1 X170.362 Y95.955 E.01681
G1 X179.38 Y104.973 E.4007
G1 X179.38 Y105.508 E.01681
G1 X169.828 Y95.955 E.42445
G1 X169.294 Y95.955 E.01678
G1 X179.38 Y106.042 E.44818
G1 X179.38 Y106.576 E.01678
G1 X168.759 Y95.955 E.47193
G1 X168.225 Y95.955 E.01678
G1 X179.38 Y107.111 E.49567
G1 X179.38 Y107.645 E.01678
G1 X167.69 Y95.955 E.51942
G1 X167.156 Y95.955 E.01678
G1 X179.38 Y108.179 E.54315
G1 X179.38 Y108.714 E.01681
G1 X166.622 Y95.955 E.5669
G1 X166.087 Y95.955 E.01681
G1 X179.38 Y109.248 E.59065
G1 X179.38 Y109.783 E.01681
G1 X165.553 Y95.955 E.6144
G1 X165.019 Y95.955 E.01678
G1 X179.38 Y110.317 E.63813
G1 X179.38 Y110.851 E.01678
G1 X164.484 Y95.955 E.66188
G1 X163.95 Y95.955 E.01678
G1 X179.38 Y111.386 E.68563
G1 X179.38 Y111.92 E.01678
G1 X163.415 Y95.955 E.70938
G1 X162.881 Y95.955 E.01678
G1 X169.169 Y102.243 E.2794
G1 X169.931 Y102.748 E.02872
G1 X170.068 Y102.864 E.00564
G1 X170.702 Y103.544 E.02921
G1 X171.06 Y104.134 E.02168
G1 X179.38 Y112.454 E.36968
G1 X179.38 Y112.989 E.01681
G1 X171.432 Y105.041 E.35316
G1 X171.54 Y105.423 E.01247
G1 X171.571 Y105.713 E.00916
G1 X179.38 Y113.523 E.347
G1 X179.38 Y114.058 E.01681
G1 X171.633 Y106.31 E.34425
G1 X171.633 Y106.845 E.01681
G1 X179.38 Y114.592 E.34422
G1 X179.38 Y115.126 E.01678
G1 X171.633 Y107.379 E.34422
G1 X171.633 Y107.914 E.01681
G1 X179.38 Y115.661 E.34422
G1 X179.38 Y116.195 E.01678
G1 X171.633 Y108.448 E.34422
G1 X171.633 Y108.982 E.01678
G1 X179.38 Y116.729 E.34422
G1 X179.38 Y117.264 E.01681
G1 X171.633 Y109.517 E.34422
G1 X171.633 Y110.051 E.01678
G1 X179.38 Y117.798 E.34422
