; generated by PrusaSlicer 2.7.1+win64 on 2024-02-21 at 10:23:33 UTC


;
;
; 

; external perimeters extrusion width = 0.45mm
; perimeters extrusion width = 0.45mm
; infill extrusion width = 0.45mm
; solid infill extrusion width = 0.45mm
; top infill extrusion width = 0.40mm
; first layer extrusion width = 0.42mm

M73 P0 R73
M73 Q0 S74
M201 X1000 Y1000 Z200 E5000 ; sets maximum accelerations, mm/sec^2
M203 X200 Y200 Z12 E120 ; sets maximum feedrates, mm / sec
M204 S1250 T1250 ; sets acceleration (S) and retract acceleration (R), mm/sec^2
M205 X8.00 Y8.00 Z0.40 E4.50 ; sets the jerk limits, mm/sec
M205 S0 T0 ; sets the minimum extruding and travel feed rate, mm/sec

; printing object pillow_block v2.stl id:0 copy 0
; stop printing object pillow_block v2.stl id:0 copy 0
; printing object pillow_block v2.stl id:0 copy 1
; stop printing object pillow_block v2.stl id:0 copy 1

;TYPE:Custom
M862.3 P "MK3S" ; printer model check
M862.1 P0.4 ; nozzle diameter check
M115 U3.13.2 ; tell printer latest fw version
G90 ; use absolute coordinates
M83 ; extruder relative mode
M104 S215 ; set extruder temp
M140 S60 ; set bed temp
M190 S60 ; wait for bed temp
M109 S215 ; wait for extruder temp
G28 W ; home all without mesh bed level
G80 X63.4402 Y93.857 W102.793 H43.2219 ; mesh bed levelling

G1 Z0.2 F720
G1 Y-3 F1000 ; go outside print area
G92 E0
G1 X60 E9 F1000 ; intro line
G1 X100 E12.5 F1000 ; intro line

G92 E0
M221 S95

; Don't change E values below. Excessive value can damage the printer.
M907 E430 ; set extruder motor current
G21 ; set units to millimeters
G90 ; use absolute coordinates
M83 ; use relative distances for extrusion
M900 K0.05 ; Filament gcode LA 1.5
M900 K30 ; Filament gcode LA 1.0

M107
;LAYER_CHANGE
;Z:0.2
;HEIGHT:0.2
;BEFORE_LAYER_CHANGE
G92 E0.0
;0.2


G1 E-.8 F2100
G1 Z.2 F720
;AFTER_LAYER_CHANGE
;0.2
G1 X66.325 Y94.832 F10800
G1 Z.2 F720
G1 E.8 F2100
M204 S800
;TYPE:Skirt/Brim
;WIDTH:0.42
G1 F1200
G1 X68.002 Y94.136 E.05693
G1 X161.668 Y94.046 E2.93683
G1 X163.348 Y94.742 E.05702
G1 X165.348 Y96.742 E.08868
G1 X166.045 Y98.423 E.05706
G1 X166.045 Y132.423 E1.06605
G1 X165.348 Y134.103 E.05703
G1 X163.348 Y136.103 E.08868
G1 X161.671 Y136.8 E.05694
G1 X68.006 Y136.89 E2.9368
G1 X66.325 Y136.194 E.05705
G1 X64.325 Y134.194 E.08868
G1 X63.629 Y132.513 E.05705
G1 X63.629 Y98.513 E1.06605
G1 X64.325 Y96.832 E.05705
G1 X66.283 Y94.875 E.0868
M204 S1000
; printing object pillow_block v2.stl id:0 copy 0
;WIPE_START
G1 F8640
G1 X66.325 Y94.832 E-.01388
G1 X68.002 Y94.136 E-.41925
G1 X69.591 Y94.134 E-.36687
;WIPE_END
G1 Z.6 F720
G1 X83.496 Y119.301 F10800
G1 Z.2 F720
G1 E.8 F2100
M204 S800
;TYPE:Perimeter
;WIDTH:0.419999
G1 F1200
G1 X82.749 Y118.916 E.02635
G1 X82.246 Y118.515 E.02017
G1 X81.931 Y118.177 E.01449
G1 X81.559 Y117.708 E.01877
G1 X81.268 Y117.162 E.0194
G1 X81.034 Y116.461 E.02317
G1 X80.922 Y115.577 E.02794
G1 X81.01 Y114.675 E.02842
G1 X81.23 Y113.955 E.02361
G1 X81.533 Y113.362 E.02088
G1 X82.009 Y112.752 E.02426
G1 X82.363 Y112.415 E.01532
G1 X82.749 Y112.111 E.01541
G1 X83.437 Y111.742 E.02448
G1 X84.08 Y111.534 E.02119
G1 X84.963 Y111.43 E.02788
G1 X85.714 Y111.49 E.02362
G1 X86.572 Y111.742 E.02804
G1 X87.174 Y112.05 E.0212
G1 X87.761 Y112.499 E.02317
G1 X88.321 Y113.135 E.02657
G1 X88.692 Y113.752 E.02257
G1 X88.984 Y114.592 E.02788
G1 X89.087 Y115.339 E.02364
G1 X89.026 Y116.231 E.02803
G1 X88.854 Y116.884 E.02117
G1 X88.542 Y117.555 E.0232
G1 X88.016 Y118.273 E.02791
G1 X87.333 Y118.869 E.02842
G1 X86.678 Y119.24 E.0236
G1 X85.826 Y119.514 E.02806
G1 X85.155 Y119.596 E.0212
G1 X84.417 Y119.554 E.02318
G1 X83.555 Y119.331 E.02792
G1 X83.549 Y119.328 E.00021
M204 S1000
G1 X83.6 Y118.939 F10800
M204 S800
;TYPE:External perimeter
G1 F1200
G1 X82.927 Y118.583 E.02387
G1 X82.486 Y118.224 E.01783
G1 X81.875 Y117.503 E.02963
G1 X81.602 Y116.986 E.01833
G1 X81.393 Y116.346 E.02111
G1 X81.297 Y115.535 E.02561
G1 X81.385 Y114.717 E.0258
M73 Q0 S73
G1 X81.589 Y114.071 E.02124
G1 X81.867 Y113.538 E.01885
G1 X82.303 Y112.988 E.02201
G1 X82.896 Y112.464 E.02481
G1 X83.615 Y112.075 E.02563
G1 X84.191 Y111.894 E.01893
G1 X85.003 Y111.805 E.02561
G1 X85.678 Y111.866 E.02125
G1 X86.462 Y112.102 E.02567
G1 X86.996 Y112.383 E.01892
G1 X87.529 Y112.796 E.02114
G1 X88.035 Y113.381 E.02425
G1 X88.364 Y113.938 E.02028
G1 X88.626 Y114.711 E.02559
G1 X88.712 Y115.384 E.02127
G1 X88.65 Y116.2 E.02566
G1 X88.491 Y116.783 E.01895
G1 X88.202 Y117.392 E.02114
G1 X87.715 Y118.046 E.02557
G1 X87.09 Y118.58 E.02578
G1 X86.496 Y118.909 E.02129
G1 X85.715 Y119.153 E.02565
G1 X85.115 Y119.221 E.01893
G1 X84.443 Y119.178 E.02111
G1 X83.654 Y118.967 E.02561
M204 S1000
;WIPE_START
G1 F8640
G1 X83.6 Y118.939 E-.01405
G1 X82.927 Y118.583 E-.1758
G1 X82.486 Y118.224 E-.1313
G1 X81.875 Y117.503 E-.21822
G1 X81.602 Y116.986 E-.135
G1 X81.433 Y116.469 E-.12563
;WIPE_END
G1 Z.6 F720
G1 X98.653 Y101.945 F10800
G1 Z.2 F720
G1 E.8 F2100
M204 S800
;TYPE:Perimeter
G1 F1200
G1 X98.722 Y102.02 E.0032
G1 X99.128 Y102.32 E.01583
G1 X99.593 Y102.538 E.0161
G1 X100.081 Y102.665 E.01581
G1 X100.641 Y102.695 E.01758
G1 X101.202 Y102.606 E.01781
G1 X101.676 Y102.429 E.01586
G1 X101.997 Y102.247 E.01157
G1 X102.419 Y101.896 E.01721
G1 X102.737 Y101.507 E.01575
G1 X102.919 Y101.17 E.01201
G1 X102.919 Y129.891 E.90053
G1 X102.733 Y129.514 E.01318
G1 X102.373 Y129.084 E.01758
G1 X101.979 Y128.769 E.01582
G1 X101.474 Y128.509 E.01781
G1 X100.925 Y128.361 E.01783
G1 X100.364 Y128.332 E.01761
G1 X99.866 Y128.406 E.01579
G1 X99.331 Y128.599 E.01783
G1 X98.848 Y128.901 E.01786
G1 X98.441 Y129.297 E.0178
G1 X98.129 Y129.763 E.01758
G1 X97.938 Y130.23 E.01582
G1 X97.831 Y130.819 E.01877
G1 X97.867 Y131.49 E.02107
G1 X98.036 Y132.064 E.01876
G1 X98.275 Y132.507 E.01578
G1 X98.634 Y132.939 E.01761
G1 X99.081 Y133.289 E.0178
G1 X99.35 Y133.426 E.00947
G1 X70.682 Y133.426 E.89886
G1 X71.079 Y133.188 E.01451
G1 X71.495 Y132.816 E.0175
G1 X71.798 Y132.411 E.01586
G1 X72.041 Y131.898 E.0178
G1 X72.17 Y131.351 E.01762
G1 X72.185 Y130.848 E.01578
G1 X72.079 Y130.259 E.01876
G1 X71.733 Y129.514 E.02576
G1 X71.373 Y129.084 E.01758
G1 X70.979 Y128.769 E.01582
G1 X70.474 Y128.509 E.01781
G1 X69.925 Y128.361 E.01783
G1 X69.364 Y128.332 E.01761
G1 X68.866 Y128.406 E.01579
G1 X68.331 Y128.599 E.01783
G1 X67.848 Y128.901 E.01786
G1 X67.441 Y129.297 E.0178
G1 X67.093 Y129.847 E.02041
G1 X67.093 Y101.187 E.89861
G1 X67.275 Y101.507 E.01154
G1 X67.634 Y101.939 E.01761
G1 X68.081 Y102.289 E.0178
G1 X68.593 Y102.538 E.01785
G1 X69.081 Y102.665 E.01581
G1 X69.641 Y102.695 E.01758
G1 X70.202 Y102.606 E.01781
G1 X70.676 Y102.429 E.01586
G1 X71.079 Y102.188 E.01472
G1 X71.495 Y101.816 E.0175
G1 X71.798 Y101.411 E.01586
G1 X72.041 Y100.898 E.0178
G1 X72.17 Y100.351 E.01762
G1 X72.185 Y99.848 E.01578
G1 X72.079 Y99.259 E.01876
G1 X71.811 Y98.643 E.02106
G1 X71.452 Y98.164 E.01877
G1 X71.072 Y97.832 E.01582
G1 X70.668 Y97.6 E.01461
G1 X99.329 Y97.6 E.89864
G1 X98.848 Y97.901 E.01779
G1 X98.441 Y98.297 E.0178
G1 X98.129 Y98.763 E.01758
G1 X97.938 Y99.23 E.01582
G1 X97.831 Y99.819 E.01877
G1 X97.895 Y100.638 E.02576
G1 X98.081 Y101.166 E.01755
G1 X98.34 Y101.599 E.01582
G1 X98.613 Y101.9 E.01274
M204 S1000
G1 X99.022 Y101.77 F10800
M204 S800
;TYPE:External perimeter
G1 F1200
G1 X98.919 Y101.691 E.00407
G1 X98.604 Y101.323 E.01519
G1 X98.394 Y100.946 E.01353
G1 X98.244 Y100.47 E.01565
G1 X98.208 Y99.799 E.02107
G1 X98.318 Y99.274 E.01682
G1 X98.493 Y98.882 E.01346
G1 X98.777 Y98.483 E.01536
G1 X99.137 Y98.153 E.01531
G1 X99.56 Y97.907 E.01534
;WIDTH:0.459346
G1 X99.789 Y97.812 E.00858
;WIDTH:0.498693
G1 X100.017 Y97.717 E.00936
G1 X100.451 Y97.679 E.01651
;WIDTH:0.47256
G1 X100.944 Y97.719 E.01767
;WIDTH:0.487376
G1 X101.815 Y98.071 E.03472
;WIDTH:0.490584
G1 X102.185 Y98.378 E.0179
G1 X102.495 Y98.78 E.0189
;WIDTH:0.484537
G1 X102.547 Y98.942 E.00625
;WIDTH:0.452268
G1 X102.6 Y99.103 E.00577
;WIDTH:0.463622
G1 X102.695 Y99.277 E.00693
;WIDTH:0.507245
G1 X102.79 Y99.451 E.00765
G1 X102.84 Y99.941 E.01902
;WIDTH:0.48032
G1 X102.817 Y100.376 E.01584
G1 X102.739 Y100.609 E.00894
;WIDTH:0.45016
G1 X102.662 Y100.841 E.00828
;WIDTH:0.419999
G1 X102.441 Y101.274 E.01524
G1 X102.173 Y101.61 E.01348
G1 X101.806 Y101.922 E.0151
G1 X101.536 Y102.079 E.00979
G1 X101.135 Y102.235 E.01349
G1 X100.654 Y102.318 E.0153
G1 X100.168 Y102.298 E.01525
G1 X99.75 Y102.195 E.0135
G1 X99.307 Y101.987 E.01534
G1 X99.07 Y101.806 E.00935
M204 S1000
;WIPE_START
G1 F8640
G1 X99.022 Y101.77 E-.01385
G1 X98.919 Y101.691 E-.02997
G1 X98.604 Y101.323 E-.11185
;WIPE_END
G1 E-.64433 F2100
G1 Z.6 F720
G1 X66.716 Y132.219 F10800
G1 Z.2 F720
G1 E.8 F2100
M204 S800
G1 F1200
G1 X66.716 Y132.055 E.00514
;WIDTH:0.457755
G1 X66.735 Y131.77 E.00985
;WIDTH:0.49551
G1 X66.754 Y131.484 E.01079
G1 X66.744 Y130.789 E.02616
;WIDTH:0.477247
G1 X66.73 Y130.518 E.0098
;WIDTH:0.448623
G1 X66.716 Y130.247 E.00915
;WIDTH:0.419999
G1 X66.716 Y101.055 E.91529
;WIDTH:0.457755
G1 X66.735 Y100.77 E.00985
;WIDTH:0.49551
G1 X66.754 Y100.484 E.01079
G1 X66.747 Y99.696 E.02966
;WIDTH:0.482201
G1 X66.731 Y99.252 E.01623
;WIDTH:0.4511
G1 X66.716 Y98.807 E.01511
;WIDTH:0.419999
G1 X67.03 Y98.494 E.0139
;WIDTH:0.455911
G1 X67.235 Y98.314 E.00937
;WIDTH:0.491822
G1 X67.44 Y98.133 E.01021
;WIDTH:0.506924
G1 X67.832 Y97.752 E.02109
G1 X68.066 Y97.488 E.01361
;WIDTH:0.463462
G1 X68.3 Y97.223 E.01236
;WIDTH:0.419999
G1 X68.448 Y97.223 E.00464
;WIDTH:0.446865
G1 X68.915 Y97.237 E.01569
;WIDTH:0.47373
G1 X69.381 Y97.25 E.0167
;WIDTH:0.488834
G1 X69.916 Y97.258 E.01984
G1 X70.188 Y97.24 E.01011
;WIDTH:0.454417
G1 X70.46 Y97.223 E.00932
;WIDTH:0.419999
G1 X99.331 Y97.223 E.90523
;WIDTH:0.453154
G1 X99.614 Y97.24 E.00967
M73 P0 R72
;WIDTH:0.486308
G1 X99.898 Y97.256 E.01049
G1 X100.467 Y97.25 E.02098
;WIDTH:0.47256
G1 X101.012 Y97.249 E.01947
;WIDTH:0.472298
G1 X101.362 Y97.236 E.0125
;WIDTH:0.446149
G1 X101.712 Y97.223 E.01174
;WIDTH:0.419999
G1 X101.819 Y97.331 E.00477
;WIDTH:0.455082
G1 X102.137 Y97.674 E.01603
;WIDTH:0.490164
G1 X102.456 Y98.017 E.01742
;WIDTH:0.515009
G1 X102.827 Y98.406 E.0211
G1 X103.062 Y98.607 E.01214
;WIDTH:0.467504
G1 X103.296 Y98.807 E.01087
;WIDTH:0.419999
G1 X103.296 Y98.958 E.00473
;WIDTH:0.463622
G1 X103.274 Y99.188 E.00808
;WIDTH:0.507245
G1 X103.252 Y99.418 E.00892
G1 X103.264 Y100.345 E.03579
;WIDTH:0.483018
G1 X103.28 Y100.613 E.00982
;WIDTH:0.451509
G1 X103.296 Y100.882 E.00916
;WIDTH:0.419999
G1 X103.296 Y129.62 E.90106
;WIDTH:0.463622
G1 X103.274 Y130.019 E.01398
;WIDTH:0.507245
G1 X103.252 Y130.418 E.01543
G1 X103.27 Y130.929 E.01974
;WIDTH:0.480319
G1 X103.281 Y131.826 E.03263
;WIDTH:0.450159
G1 X103.296 Y132.219 E.01332
;WIDTH:0.468606
G1 X103.072 Y132.409 E.0104
;WIDTH:0.517212
G1 X102.848 Y132.598 E.01156
G1 X102.5 Y132.965 E.01995
;WIDTH:0.502025
G1 X102.12 Y133.337 E.0203
G1 X101.916 Y133.57 E.01182
;WIDTH:0.461012
G1 X101.712 Y133.803 E.01077
;WIDTH:0.419999
G1 X101.283 Y133.803 E.01345
;WIDTH:0.44871
G1 X101.009 Y133.789 E.00926
;WIDTH:0.47742
G1 X100.736 Y133.775 E.00988
;WIDTH:0.481923
G1 X99.907 Y133.788 E.03026
;WIDTH:0.450961
G1 X99.618 Y133.803 E.00982
;WIDTH:0.419999
G1 X70.186 Y133.803 E.92282
;WIDTH:0.447138
G1 X69.916 Y133.79 E.00909
;WIDTH:0.474277
G1 X69.646 Y133.776 E.0097
;WIDTH:0.487749
G1 X69.109 Y133.769 E.01986
;WIDTH:0.537486
G1 X68.722 Y133.745 E.01595
;WIDTH:0.587223
G1 X68.335 Y133.72 E.01755
G1 X68.148 Y133.556 E.01126
;WIDTH:0.555657
G1 X67.962 Y133.392 E.01057
;WIDTH:0.52409
G1 X67.566 Y133.019 E.02177
;WIDTH:0.514009
G1 X67.19 Y132.627 E.02128
G1 X66.953 Y132.423 E.01225
;WIDTH:0.467004
G1 X66.761 Y132.258 E.00893
M204 S1000
;WIPE_START
G1 F8640
G1 X66.716 Y132.219 E-.01375
G1 X66.716 Y132.055 E-.03787
;WIPE_END
G1 E-.74838 F2100
G1 Z.6 F720
G1 X102.955 Y98.92 F10800
G1 Z.2 F720
G1 E.8 F2100
M204 S800
;TYPE:Perimeter
;WIDTH:0.39199
G1 F1200
G1 X102.889 Y98.958 E.00221
G1 X102.955 Y98.996 E.00221
G1 X102.976 Y98.958 E.00126
M204 S1000
;WIPE_START
G1 F8640
G1 X102.955 Y98.996 E-.01003
G1 X102.889 Y98.958 E-.01759
G1 X102.955 Y98.92 E-.01759
;WIPE_END
G1 E-.75479 F2100
G1 Z.6 F720
G1 X101.587 Y97.539 F10800
G1 Z.2 F720
G1 E.8 F2100
M204 S800
;WIDTH:0.368102
G1 F1200
G1 X101.526 Y97.574 E.0019
G1 X101.587 Y97.61 E.00192
G1 X101.607 Y97.574 E.00111
M204 S1000
;WIPE_START
G1 F8640
G1 X101.587 Y97.61 E-.00951
G1 X101.526 Y97.574 E-.01636
G1 X101.587 Y97.539 E-.01624
;WIPE_END
G1 E-.75789 F2100
G1 Z.6 F720
G1 X71.349 Y101.391 F10800
G1 Z.2 F720
G1 E.8 F2100
M204 S800
;TYPE:External perimeter
;WIDTH:0.419999
G1 F1200
G1 X71.194 Y101.589 E.00788
G1 X70.813 Y101.917 E.01576
G1 X70.536 Y102.079 E.01006
G1 X70.135 Y102.235 E.01349
G1 X69.654 Y102.318 E.0153
G1 X69.168 Y102.298 E.01525
G1 X68.75 Y102.195 E.0135
G1 X68.307 Y101.987 E.01534
G1 X67.919 Y101.691 E.0153
G1 X67.603 Y101.321 E.01526
G1 X67.394 Y100.946 E.01346
;WIDTH:0.457755
G1 X67.3 Y100.709 E.00879
;WIDTH:0.49551
G1 X67.206 Y100.472 E.00959
G1 X67.179 Y99.801 E.02527
;WIDTH:0.477557
G1 X67.243 Y99.555 E.00919
;WIDTH:0.448778
G1 X67.307 Y99.31 E.00855
;WIDTH:0.419999
G1 X67.493 Y98.882 E.01463
;WIDTH:0.455911
G1 X67.623 Y98.669 E.00857
;WIDTH:0.491822
G1 X67.752 Y98.457 E.00926
;WIDTH:0.506924
G1 X68.115 Y98.116 E.01922
G1 X68.975 Y97.732 E.03634
;WIDTH:0.486308
G1 X69.451 Y97.679 E.01766
;WIDTH:0.47256
G1 X69.944 Y97.719 E.01767
;WIDTH:0.472298
G1 X70.174 Y97.803 E.00874
;WIDTH:0.446149
G1 X70.404 Y97.886 E.0082
;WIDTH:0.419999
G1 X70.83 Y98.122 E.01527
G1 X71.158 Y98.4 E.01348
G1 X71.465 Y98.793 E.01564
G1 X71.733 Y99.41 E.02109
G1 X71.814 Y99.939 E.01678
G1 X71.787 Y100.368 E.01348
G1 X71.662 Y100.841 E.01534
G1 X71.432 Y101.285 E.01568
G1 X71.386 Y101.344 E.00235
M204 S1000
;WIPE_START
G1 F8640
G1 X71.349 Y101.391 E-.01381
G1 X71.194 Y101.589 E-.05806
;WIPE_END
G1 E-.72813 F2100
G1 Z.6 F720
G1 X68.466 Y97.539 F10800
G1 Z.2 F720
G1 E.8 F2100
M204 S800
;TYPE:Perimeter
;WIDTH:0.368506
G1 F1200
G1 X68.405 Y97.575 E.00192
G1 X68.466 Y97.61 E.0019
G1 X68.486 Y97.575 E.00109
M204 S1000
;WIPE_START
G1 F8640
G1 X68.466 Y97.61 E-.00931
G1 X68.405 Y97.575 E-.01624
G1 X68.466 Y97.539 E-.01636
;WIPE_END
G1 E-.75809 F2100
G1 Z.6 F720
M73 Q1 S73
G1 X67.091 Y98.918 F10800
M73 P1 R72
G1 Z.2 F720
G1 E.8 F2100
M204 S800
;WIDTH:0.375352
G1 F1200
G1 X67.029 Y98.954 E.00198
G1 X67.091 Y98.99 E.00198
G1 X67.112 Y98.954 E.00115
M204 S1000
;WIPE_START
G1 F8640
G1 X67.091 Y98.99 E-.00962
G1 X67.029 Y98.954 E-.01655
G1 X67.091 Y98.918 E-.01655
;WIPE_END
G1 E-.75728 F2100
G1 Z.6 F720
G1 X71.775 Y130.682 F10800
G1 Z.2 F720
G1 E.8 F2100
M204 S800
;TYPE:External perimeter
;WIDTH:0.419999
G1 F1200
G1 X71.814 Y130.939 E.00815
G1 X71.787 Y131.368 E.01348
G1 X71.662 Y131.841 E.01534
G1 X71.441 Y132.274 E.01524
G1 X71.173 Y132.61 E.01348
G1 X70.806 Y132.922 E.0151
G1 X70.536 Y133.079 E.00979
G1 X70.135 Y133.235 E.01349
;WIDTH:0.447138
G1 X69.894 Y133.29 E.00831
;WIDTH:0.474277
G1 X69.653 Y133.345 E.00887
;WIDTH:0.511547
G1 X69.358 Y133.326 E.01152
;WIDTH:0.548817
G1 X69.062 Y133.307 E.01248
;WIDTH:0.586086
G1 X68.767 Y133.288 E.01335
G1 X68.317 Y133.061 E.02276
;WIDTH:0.537089
G1 X67.927 Y132.747 E.02057
;WIDTH:0.514009
G1 X67.562 Y132.344 E.0213
G1 X67.222 Y131.53 E.03456
;WIDTH:0.48537
G1 X67.179 Y130.801 E.02687
;WIDTH:0.477557
G1 X67.243 Y130.555 E.00919
;WIDTH:0.448778
G1 X67.307 Y130.31 E.00855
;WIDTH:0.419999
G1 X67.493 Y129.882 E.01463
G1 X67.777 Y129.483 E.01536
G1 X68.137 Y129.153 E.01531
G1 X68.56 Y128.907 E.01534
G1 X69.022 Y128.756 E.01524
G1 X69.449 Y128.705 E.01348
G1 X69.937 Y128.744 E.01535
G1 X70.404 Y128.886 E.0153
G1 X70.83 Y129.122 E.01527
G1 X71.158 Y129.4 E.01348
G1 X71.465 Y129.793 E.01564
G1 X71.733 Y130.41 E.02109
G1 X71.766 Y130.623 E.00676
M204 S1000
;WIPE_START
G1 F8640
G1 X71.775 Y130.682 E-.01378
G1 X71.814 Y130.939 E-.06002
G1 X71.787 Y131.368 E-.09925
G1 X71.662 Y131.841 E-.11297
G1 X71.441 Y132.274 E-.11225
G1 X71.173 Y132.61 E-.09924
G1 X70.806 Y132.922 E-.11123
G1 X70.536 Y133.079 E-.07212
G1 X70.135 Y133.235 E-.09935
;WIPE_END
G1 E-.01979 F2100
G1 Z.6 F720
G1 X67.087 Y132.039 F10800
G1 Z.2 F720
G1 E.8 F2100
M204 S800
